storage/app/icons/phosphoricons/light/belt-light.svg

<svg xmlns="http://www.w3.org/2000/svg" fill="currentColor" viewBox="0 0 256 256"><path d="M248 162h-58V94h58a6 6 0 0 0 0-12h-59.37A14 14 0 0 0 176 74h-64a14 14 0 0 0-12.63 8H62v-2a6 6 0 0 0-12 0v2H8a6 6 0 0 0 0 12h42v68H8a6 6 0 0 0 0 12h42v2a6 6 0 0 0 12 0v-2h37.37a14 14 0 0 0 12.63 8h64a14 14 0 0 0 12.63-8H248a6 6 0 0 0 0-12M62 94h36v68H62Zm114 76h-64a2 2 0 0 1-2-2V88a2 2 0 0 1 2-2h64a2 2 0 0 1 2 2v34h-34a6 6 0 0 0 0 12h34v34a2 2 0 0 1-2 2"/></svg>

<svg xmlns="http://www.w3.org/2000/svg" viewBox="0 0 256 256" fill="currentColor"><path d="M248,162H190V94h58a6,6,0,0,0,0-12H188.63A14,14,0,0,0,176,74H112a14,14,0,0,0-12.63,8H62V80a6,6,0,0,0-12,0v2H8A6,6,0,0,0,8,94H50v68H8a6,6,0,0,0,0,12H50v2a6,6,0,0,0,12,0v-2H99.37A14,14,0,0,0,112,182h64a14,14,0,0,0,12.63-8H248a6,6,0,0,0,0-12ZM62,94H98v68H62Zm114,76H112a2,2,0,0,1-2-2V88a2,2,0,0,1,2-2h64a2,2,0,0,1,2,2v34H144a6,6,0,0,0,0,12h34v34A2,2,0,0,1,176,170Z"/></svg>
